symbols/web/grain/materialsymbolsoutlined/grain_wght200gradN25_24px.svg

<svg xmlns="http://www.w3.org/2000/svg" height="24" width="24"><path d="M6 19.575q-.675 0-1.125-.45-.45-.45-.45-1.125t.45-1.125q.45-.45 1.125-.45t1.125.45q.45.45.45 1.125t-.45 1.125q-.45.45-1.125.45Zm8 0q-.675 0-1.125-.45-.45-.45-.45-1.125t.45-1.125q.45-.45 1.125-.45t1.125.45q.45.45.45 1.125t-.45 1.125q-.45.45-1.125.45Zm-4-4q-.675 0-1.125-.45-.45-.45-.45-1.125t.45-1.125q.45-.45 1.125-.45t1.125.45q.45.45.45 1.125t-.45 1.125q-.45.45-1.125.45Zm8 0q-.675 0-1.125-.45-.45-.45-.45-1.125t.45-1.125q.45-.45 1.125-.45t1.125.45q.45.45.45 1.125t-.45 1.125q-.45.45-1.125.45Zm-12-4q-.675 0-1.125-.45-.45-.45-.45-1.125t.45-1.125q.45-.45 1.125-.45t1.125.45q.45.45.45 1.125t-.45 1.125q-.45.45-1.125.45Zm8 0q-.675 0-1.125-.45-.45-.45-.45-1.125t.45-1.125q.45-.45 1.125-.45t1.125.45q.45.45.45 1.125t-.45 1.125q-.45.45-1.125.45Zm-4-4q-.675 0-1.125-.45-.45-.45-.45-1.125t.45-1.125q.45-.45 1.125-.45t1.125.45q.45.45.45 1.125t-.45 1.125q-.45.45-1.125.45Zm8 0q-.675 0-1.125-.45-.45-.45-.45-1.125t.45-1.125q.45-.45 1.125-.45t1.125.45q.45.45.45 1.125t-.45 1.125q-.45.45-1.125.45Z"/></svg>

<svg xmlns="http://www.w3.org/2000/svg" height="24" width="24"><path d="M10 15.575Q9.325 15.575 8.875 15.125Q8.425 14.675 8.425 14Q8.425 13.325 8.875 12.875Q9.325 12.425 10 12.425Q10.675 12.425 11.125 12.875Q11.575 13.325 11.575 14Q11.575 14.675 11.125 15.125Q10.675 15.575 10 15.575ZM6 11.575Q5.325 11.575 4.875 11.125Q4.425 10.675 4.425 10Q4.425 9.325 4.875 8.875Q5.325 8.425 6 8.425Q6.675 8.425 7.125 8.875Q7.575 9.325 7.575 10Q7.575 10.675 7.125 11.125Q6.675 11.575 6 11.575ZM6 19.575Q5.325 19.575 4.875 19.125Q4.425 18.675 4.425 18Q4.425 17.325 4.875 16.875Q5.325 16.425 6 16.425Q6.675 16.425 7.125 16.875Q7.575 17.325 7.575 18Q7.575 18.675 7.125 19.125Q6.675 19.575 6 19.575ZM18 7.575Q17.325 7.575 16.875 7.125Q16.425 6.675 16.425 6Q16.425 5.325 16.875 4.875Q17.325 4.425 18 4.425Q18.675 4.425 19.125 4.875Q19.575 5.325 19.575 6Q19.575 6.675 19.125 7.125Q18.675 7.575 18 7.575ZM14 19.575Q13.325 19.575 12.875 19.125Q12.425 18.675 12.425 18Q12.425 17.325 12.875 16.875Q13.325 16.425 14 16.425Q14.675 16.425 15.125 16.875Q15.575 17.325 15.575 18Q15.575 18.675 15.125 19.125Q14.675 19.575 14 19.575ZM18 15.575Q17.325 15.575 16.875 15.125Q16.425 14.675 16.425 14Q16.425 13.325 16.875 12.875Q17.325 12.425 18 12.425Q18.675 12.425 19.125 12.875Q19.575 13.325 19.575 14Q19.575 14.675 19.125 15.125Q18.675 15.575 18 15.575ZM14 11.575Q13.325 11.575 12.875 11.125Q12.425 10.675 12.425 10Q12.425 9.325 12.875 8.875Q13.325 8.425 14 8.425Q14.675 8.425 15.125 8.875Q15.575 9.325 15.575 10Q15.575 10.675 15.125 11.125Q14.675 11.575 14 11.575ZM10 7.575Q9.325 7.575 8.875 7.125Q8.425 6.675 8.425 6Q8.425 5.325 8.875 4.875Q9.325 4.425 10 4.425Q10.675 4.425 11.125 4.875Q11.575 5.325 11.575 6Q11.575 6.675 11.125 7.125Q10.675 7.575 10 7.575Z"/></svg>
